X: 6
T: Calliope House
R: jig
M: 6/8
L: 1/8
K: Emaj
eBB gBB|fBB gBB|cff f2e|fge cec|BcB B2G|B2c e2f|1 gbg gfe|f3-f2:|2 gbg fec|e3-e|b3 gbb|fbb gbb|a3 gag|fgf fec|BcB B2G|B2c e2f|1 gbg gfe|f3-f:|2 gbg fec| e3-e2||eBB gBB fBB gBB|cff f2e fge cec|BcB B2G B2c e2f||1 gbg gfe f3-f2:|2 gbg fec e3-e|b3 gbb fbb gbb|a3 gag fgf fec|BcB B2G B2c e2f||1 gbg gfe f3-f:|2 gbg fec e3-e2||


Tune 15	Setting 12383

